**kern	**kern
*part1	*part1
*staff2	*staff1
*I"Piano	*
*clefF4	*clefF4
*k[b-e-a-]	*k[b-e-a-]
=1	=1
(4BB-	(4D' 4F 4B-
8AA-')	8E-') 8A- 8c
=	=
(4EE-'	(4G' 4B- 4e-
8FF')	8F') 8B- 8d
=	=
*	*^
4.GG	(8cL	4.E- 4.A-
.	8d	.
.	8B-J)	.
*	*v	*v
=	=
(8AA-L	[4.E- [4.A- [4.c
8BB-	.
8GGJ)	.
=	=
(4AA-	(8E-L] 8A-] 8c]
.	8d
8GG)	8B-J)
=	=
*	*^
(8FFL	(8cL	4.E- 4.A-
8EE-	8e-	.
8FFJ)	8dJ)	.
=	=	=
(4GG	(8B-L	4.D 4.G
.	8c	.
8FF)	8A-J)	.
*	*v	*v
=	=
*-	*-
!!!system-decoration: {(s1,s2)}
